Numix-GalliumOS/32/categories/preferences-desktop-peripherals-directory.svg

<?xml version="1.0" encoding="UTF-8" standalone="no"?>
<svg
   xmlns:dc="http://purl.org/dc/elements/1.1/"
   xmlns:cc="http://creativecommons.org/ns#"
   xmlns:rdf="http://www.w3.org/1999/02/22-rdf-syntax-ns#"
   xmlns:svg="http://www.w3.org/2000/svg"
   xmlns="http://www.w3.org/2000/svg"
   xmlns:sodipodi="http://sodipodi.sourceforge.net/DTD/sodipodi-0.dtd"
   xmlns:inkscape="http://www.inkscape.org/namespaces/inkscape"
   width="32"
   height="32"
   viewBox="0 0 32 32"
   id="svg2"
   version="1.1"
   inkscape:version="0.91 r"
   sodipodi:docname="preferences-desktop-peripherals-directory.svg">
  <metadata
     id="metadata36">
    <rdf:RDF>
      <cc:Work
         rdf:about="">
        <dc:format>image/svg+xml</dc:format>
        <dc:type
           rdf:resource="http://purl.org/dc/dcmitype/StillImage" />
        <dc:title />
      </cc:Work>
    </rdf:RDF>
  </metadata>
  <defs
     id="defs34" />
  <sodipodi:namedview
     pagecolor="#ffffff"
     bordercolor="#666666"
     borderopacity="1"
     objecttolerance="10"
     gridtolerance="10"
     guidetolerance="10"
     inkscape:pageopacity="0"
     inkscape:pageshadow="2"
     inkscape:window-width="1680"
     inkscape:window-height="1026"
     id="namedview32"
     showgrid="true"
     inkscape:zoom="10.429825"
     inkscape:cx="-3.51277"
     inkscape:cy="13.256572"
     inkscape:window-x="0"
     inkscape:window-y="24"
     inkscape:window-maximized="1"
     inkscape:current-layer="svg2">
    <inkscape:grid
       type="xygrid"
       id="grid4164" />
  </sodipodi:namedview>
  <path
     style="fill:#555555"
     inkscape:connector-curvature="0"
     id="path6"
     d="m 12.050781,6.4407247 c 0,-0.3832925 -0.224138,-0.6907247 -0.5,-0.6907247 -0.275862,0 -0.5,0.3074322 -0.5,0.6907247 l 0,2.5592753 1,0 z" />
  <path
     style="fill:#555555"
     inkscape:connector-curvature="0"
     id="path8"
     d="m 11.050781,25.555282 c 0,0.383292 0.224138,0.694718 0.5,0.694718 0.275862,0 0.5,-0.311426 0.5,-0.694718 l 0,-2.555282 -1,0 z" />
  <path
     style="fill:#555555"
     inkscape:connector-curvature="0"
     id="path10"
     d="M 16.5,6.4407247 C 16.5,6.0574322 16.275216,5.75 15.998559,5.75 15.721902,5.75 15.5,6.0574322 15.5,6.4407247 L 15.5,9 l 1,0 z" />
  <path
     style="fill:#555555"
     inkscape:connector-curvature="0"
     id="path12"
     d="M 15.5,25.555282 C 15.5,25.938574 15.721902,26.25 15.998559,26.25 16.275216,26.25 16.5,25.938574 16.5,25.555282 L 16.5,23 l -1,0 z" />
  <path
     style="fill:#555555"
     inkscape:connector-curvature="0"
     id="path14"
     d="M 21,6.4407247 C 21,6.0574322 20.778097,5.75 20.498559,5.75 20.221902,5.75 20,6.0574322 20,6.4407247 L 20,9 21,9 Z" />
  <path
     style="fill:#555555"
     inkscape:connector-curvature="0"
     id="path16"
     d="M 20,25.555282 C 20,25.938574 20.221902,26.25 20.50144,26.25 20.778097,26.25 21,25.938574 21,25.555282 L 21,23 20,23 Z" />
  <path
     style="fill:#555555"
     inkscape:connector-curvature="0"
     id="path18"
     d="M 6.4415742,20 C 6.0578103,20 5.75,20.221903 5.75,20.49856 5.75,20.775217 6.0578103,21 6.4415742,21 L 9,21 9,20 Z" />
  <path
     style="fill:#555555"
     inkscape:connector-curvature="0"
     id="path20"
     d="M 25.554429,21 C 25.938192,21 26.25,20.775217 26.25,20.49856 26.25,20.221903 25.938192,20 25.554429,20 L 23,20 l 0,1 z" />
  <path
     style="fill:#555555"
     inkscape:connector-curvature="0"
     id="path22"
     d="M 6.4415742,15.5 C 6.0578103,15.5 5.75,15.724138 5.75,16 c 0,0.272988 0.3078103,0.5 0.6915742,0.5 L 9,16.5 l 0,-1 z" />
  <path
     style="fill:#555555"
     inkscape:connector-curvature="0"
     id="path24"
     d="M 25.554429,16.5 C 25.938192,16.5 26.25,16.272988 26.25,16 c 0,-0.275862 -0.311808,-0.5 -0.695571,-0.5 L 23,15.5 l 0,1 z" />
  <path
     style="fill:#555555"
     inkscape:connector-curvature="0"
     id="path26"
     d="M 6.4415742,11 C 6.0578103,11 5.75,11.224138 5.75,11.5 5.75,11.772988 6.0578103,12 6.4415742,12 L 9,12 9,11 Z" />
  <path
     style="fill:#555555"
     inkscape:connector-curvature="0"
     id="path28"
     d="M 25.554429,12 C 25.938192,12 26.25,11.772988 26.25,11.5 26.25,11.224138 25.938192,11 25.554429,11 L 23,11 l 0,1 z" />
  <path
     style="fill:#555555"
     inkscape:connector-curvature="0"
     id="path30"
     d="M 19.643439,21 C 20.388436,21 21,20.395176 21,19.64564 l 0,-7.291279 C 21,11.604824 20.388436,11 19.643439,11 l -7.290584,0 C 11.607858,11 11,11.604824 11,12.354361 l 0,7.291279 C 11,20.395176 11.607858,21 12.352855,21 Z" />
</svg>

<svg xmlns="http://www.w3.org/2000/svg" viewBox="0 0 32 32">
 <path d="m 12.05 6.441 c 0 -0.383 -0.224 -0.691 -0.5 -0.691 -0.276 0 -0.5 0.307 -0.5 0.691 l 0 2.559 1 0 z" style="fill:#555"/>
 <path d="m 11.05 25.555 c 0 0.383 0.224 0.695 0.5 0.695 0.276 0 0.5 -0.311 0.5 -0.695 l 0 -2.555 -1 0 z" style="fill:#555"/>
 <path d="m 16.5 6.441 c 0 -0.383 -0.225 -0.691 -0.501 -0.691 -0.277 0 -0.499 0.307 -0.499 0.691 l 0 2.559 l 1 0 z" style="fill:#555"/>
 <path d="m 15.5 25.555 c 0 0.383 0.222 0.695 0.499 0.695 0.277 0 0.501 -0.311 0.501 -0.695 l 0 -2.555 l -1 0 z" style="fill:#555"/>
 <path d="m 21 6.441 c 0 -0.383 -0.222 -0.691 -0.501 -0.691 -0.277 0 -0.499 0.307 -0.499 0.691 l 0 2.559 1 0" style="fill:#555"/>
 <path d="m 20 25.555 c 0 0.383 0.222 0.695 0.501 0.695 0.277 0 0.499 -0.311 0.499 -0.695 l 0 -2.555 -1 0" style="fill:#555"/>
 <path d="m 6.442 20 c -0.384 0 -0.692 0.222 -0.692 0.499 0 0.277 0.308 0.501 0.692 0.501 l 2.558 0 0 -1" style="fill:#555"/>
 <path d="m 25.554 21 c 0.384 0 0.696 -0.225 0.696 -0.501 0 -0.277 -0.312 -0.499 -0.696 -0.499 l -2.554 0 l 0 1 z" style="fill:#555"/>
 <path d="m 6.442 15.5 c -0.384 0 -0.692 0.224 -0.692 0.5 c 0 0.273 0.308 0.5 0.692 0.5 l 2.558 0 l 0 -1 z" style="fill:#555"/>
 <path d="m 25.554 16.5 c 0.384 0 0.696 -0.227 0.696 -0.5 c 0 -0.276 -0.312 -0.5 -0.696 -0.5 l -2.554 0 l 0 1 z" style="fill:#555"/>
 <path d="m 6.442 11 c -0.384 0 -0.692 0.224 -0.692 0.5 0 0.273 0.308 0.5 0.692 0.5 l 2.558 0 0 -1" style="fill:#555"/>
 <path d="m 25.554 12 c 0.384 0 0.696 -0.227 0.696 -0.5 0 -0.276 -0.312 -0.5 -0.696 -0.5 l -2.554 0 l 0 1 z" style="fill:#555"/>
 <path d="m 19.643 21 c 0.745 0 1.357 -0.605 1.357 -1.354 l 0 -7.291 c 0 -0.75 -0.612 -1.354 -1.357 -1.354 l -7.291 0 c -0.745 0 -1.353 0.605 -1.353 1.354 l 0 7.291 c 0 0.75 0.608 1.354 1.353 1.354" style="fill:#555"/>
</svg>
